public/library/circuit-icon-dark.svg

<svg width="46" height="46" viewBox="0 0 46 46" fill="none" xmlns="http://www.w3.org/2000/svg">
<circle cx="23" cy="23" r="23" fill="url(#paint0_linear_2278_4696)"/>
<path d="M35.5465 13.7585C34.4591 15.7008 31.8345 14.2731 29 16.0299C27.3786 17.0341 26.6484 18.843 26.3183 20.2083C25.9605 20.7142 25.4962 21.1844 24.9671 21.2928C23.7242 21.5406 22.8852 21.7808 22.8852 23.1792C22.8852 24.5776 23.7182 27.5512 26.0513 28.171C28.3845 28.7908 32.8295 28.6975 33.6375 31.5784C33.8582 32.3709 33.968 33.19 33.9637 34.0125C33.9607 34.6642 33.768 35.3011 33.4092 35.8459C33.0503 36.3906 32.5407 36.8199 31.9421 37.0815C30.0419 37.9094 27.9902 38.3353 25.9165 38.3324C17.6017 38.3324 10.8611 31.6088 10.8611 23.3186C10.8611 15.0284 17.6023 8.30471 25.917 8.30471C29.2106 8.2994 32.4142 9.37608 35.0327 11.3683C35.3823 11.6316 35.6284 12.0086 35.7283 12.4339C35.8282 12.8592 35.7757 13.306 35.5797 13.6967C35.5688 13.7173 35.558 13.7379 35.5465 13.7585Z" fill="white"/>
<path d="M30.3202 19.9502C30.1157 20.0773 29.9242 20.226 29.7487 20.3942C29.7233 20.4176 29.6924 20.4335 29.6592 20.4403C29.626 20.4471 29.5916 20.4445 29.5597 20.4328C29.5277 20.4211 29.4994 20.4006 29.4774 20.3736C29.4555 20.3466 29.4409 20.3139 29.435 20.279C29.3492 19.7942 29.3086 18.9304 30.0169 18.6448C31.0214 18.2417 31.8902 18.9627 31.943 19.4999C31.9957 20.0372 30.6554 19.7636 30.3202 19.9502Z" fill="white"/>
<defs>
<linearGradient id="paint0_linear_2278_4696" x1="6.19911" y1="1.78302" x2="40.6902" y2="45.3396" gradientUnits="userSpaceOnUse">
<stop stop-color="#27923A"/>
<stop offset="0.39" stop-color="#3EA543"/>
<stop offset="1" stop-color="#229FAB"/>
</linearGradient>
</defs>
</svg>

<svg xmlns="http://www.w3.org/2000/svg" width="46" height="46" fill="none" viewBox="0 0 46 46"><circle cx="23" cy="23" r="23" fill="url(#a)"/><path fill="#fff" d="M35.547 13.759c-1.088 1.942-3.712.514-6.547 2.27-1.621 1.005-2.352 2.814-2.682 4.18-.358.505-.822.975-1.35 1.084-1.244.248-2.083.488-2.083 1.886 0 1.399.833 4.372 3.166 4.992s6.779.527 7.587 3.407a9 9 0 0 1 .326 2.435 3.36 3.36 0 0 1-2.022 3.069 15 15 0 0 1-6.026 1.25c-8.314 0-15.055-6.723-15.055-15.013S17.602 8.305 25.917 8.305a15 15 0 0 1 9.116 3.063 1.87 1.87 0 0 1 .547 2.329z"/><path fill="#fff" d="M30.32 19.95a3.5 3.5 0 0 0-.571.444.182.182 0 0 1-.189.039.2.2 0 0 1-.083-.06.2.2 0 0 1-.042-.094c-.086-.485-.126-1.349.582-1.634 1.004-.403 1.873.318 1.926.855s-1.288.264-1.623.45"/><defs><linearGradient id="a" x1="6.199" x2="40.69" y1="1.783" y2="45.34" gradientUnits="userSpaceOnUse"><stop stop-color="#27923a"/><stop offset=".39" stop-color="#3ea543"/><stop offset="1" stop-color="#229fab"/></linearGradient></defs></svg>
